!!!OTL-incipit: WARUM BLICKT DOCH SO VERSTOHLEN
!!!ARE: Europa, Mitteleuropa, Deutschland
!!!SCT: Z0141
!!!TXL: @@DE
!!!YEM: Copyright 1995, estate of Helmut Schaffrath.
**kern	**text
*ICvox	*
*M4/4	*
*met(c)	*
*k[f#]	*
*G:	*
!LO:TX:a:t=Schwäbiſch.	!
{8d	Warum
8d	.
=1	=1
8d	blickt
8b/	doch
8cc	ſo
8b	ver-
8b	-ſtoh-
8a}	-len
{8a	mich
8g	des
=2	=2
8g	Nach-
8f#	-bars
8e	Töf-
8d	-fel
8dL	an,
8gJ}	.
{8g	da
8b/	er
=3	=3
8b/	mir
8a	doch
8a	un-
8g	-ver-
8f#	-hoh-
8e}	-len
{8g	in
8f#	das
=4	=4
8f#	Au-
8e	-ge
8d	ſe-
8c	-hen
8d	kann?
8r}	.
{8a	Jch
8a	muß
=5	=5
8g	nur
8f#	die
8e	Mut-
8d	-ter
8d	fra-
8g}	-gen,
{8a	was
8b/	er
=6	=6
8cc	ſo
8b	ver-
8a	-ſtoh-
8g	-len
4f#}	blickt,
{8d	denn
8d	wollt
=7	=7
8dd	ich's
8dd	ihm
8cc	ſel-
8b	-ber
8dd	ſa-
8cc}	-gen,
{8a	ließ
8g	es
=8	=8
16f#L	wohl
16gJ	.
16aL	recht
16bJ	.
8cc	un-
8f#	-ge-
4g}	-ſchickt.
==	==
!!!AGN: Erzaehlung, lustige Romanze
!!!ONB: ESAC (Essen Associative Code) Database: ZUCCAL
!!!AMT: simple quadruple
!!!AIN: vox
!!!EED: Helmut Schaffrath
!!!EEV: 1.0
!!!GTL: II. Erzahlungen, lustige Romanzen, Kinder-Lieder und episch-lyrische Volks-Lieder.
!!!URL-scan: https://www.digitale-sammlungen.de/de/view/bsb11160571?page=265
!!!ENC: Anna Maria Matuszewska
!!!EEV: 2025/01/28
*-	*-
